X:7
T:Mrs. MacLeod of Raasay
R:Reel
L:1/8
C:Trad.
N:Probably composed by Alexander MacDonald, but unknown which or when. See history at URL
H:https://tunearch.org/wiki/Annotation:Mrs._MacLeod_of_Raasay_(1)
M:C|
L:1/8
Q:"76 bpm"
K:D
[| {g}A2 {ag}a2 fe{g}fa | c{g}c{G}cB c{g}c{G}cB | {g}A2 {ag}a2 fe{g}fa | B{g}B{G}BA {g}Bd{g}cB |
 {g}A2 {ag}a2 fe{g}fa | c{g}c{G}cB {g}cd{g}ec | {g}f3 e {g}fe{g}fg | af{g}ec {g}Bd{g}cB  ||
{g}A3 {d}c {g}eA{d}ca | c{g}c{G}cB c{g}c{G}cB | {g}A3 {d}c {g}eA{d}ca | B{g}B{G}BA {g}Bd{g}cB |
{g}A3 {d}c {g}eA{d}ca | c{g}c{G}cB {g}c2 e2 | {g}f3 e {g}fe{g}fg | af{g}ec {g}Bd{g}cB | {g}A8 |]

